dist/img/home/card_9.svg

<svg width="156" height="102" viewBox="0 0 156 102" fill="none" xmlns="http://www.w3.org/2000/svg">
<path d="M141.621 37.8253L175.353 56.3586L87.9182 101.32L1.75049 53.9763L41.3423 33.6168M116.124 23.8391L106.721 18.6462" stroke="#6F6F6F"/>
<path d="M20.4356 45.2124L36.7412 54.1714L19.1198 63.2329M105.278 91.8281L88.7069 82.7235M37.9225 36.22L39.6053 37.1155M122.765 82.8358L106.194 73.7311M140.251 73.8434L123.681 64.7388M157.738 64.8511L141.168 55.7464M36.3533 72.7017L53.9747 63.6402L71.2083 73.109L53.5869 82.1705M158.251 46.9616L141.168 55.7464M71.0855 91.785L88.6397 82.7581L88.7069 82.7235M141.168 55.7464L123.681 64.7388M123.681 64.7388L106.194 73.7311M106.194 73.7311L88.7069 82.7235" stroke="#C8C8C8" stroke-dasharray="4 4"/>
<path d="M141.569 55.4932L100.828 76.4019" stroke="#CA0001"/>
<rect x="0.882834" y="0.0141646" width="45.0898" height="19.1216" transform="matrix(0.890365 -0.455247 0.875302 0.483576 48.4396 22.0711)" stroke="#CA0001"/>
<rect x="0.882834" y="0.0141646" width="45.2638" height="19.0725" transform="matrix(0.890365 -0.455247 0.875302 0.483576 83.2465 41.0838)" stroke="#CA0001"/>
<path d="M48.7912 29.8328L41.6204 33.5669M65.9409 39.1678L58.461 43.0648M58.461 43.0648L41.6204 33.5669M58.461 43.0648L53.9851 53.0228M41.6204 33.5669L36.752 43.3776M53.9851 53.0228L36.752 43.3776M53.9851 53.0228V63.7389M36.752 43.3776L36.752 54.0937L53.9851 63.7389M53.9851 63.7389L66.142 57.3432" stroke="#6F6F6F"/>
<line x1="106.438" y1="28.8203" x2="106.438" y2="10.4514" stroke="#CA0001"/>
<line x1="141.124" y1="55.6431" x2="141.124" y2="29.3681" stroke="#CA0001"/>
<line x1="65.6421" y1="57.6116" x2="65.6421" y2="31.5316" stroke="#CA0001"/>
<line x1="100.328" y1="76.4019" x2="100.328" y2="50.1067" stroke="#CA0001"/>
<line x1="48.6777" y1="29.5031" x2="65.9728" y2="38.677" stroke="#CA0001"/>
<line x1="48.374" y1="30.0286" x2="48.374" y2="21.5905" stroke="#CA0001"/>
<path d="M83.6265 48.4049L65.9397 57.467" stroke="#CA0001"/>
<path d="M83.6919 48.4043L75.9707 52.3584M100.492 57.8572L92.8114 61.8563M92.8114 61.8563L75.9707 52.3584M92.8114 61.8563L88.3354 71.8143M75.9707 52.3584L71.1023 62.1691M88.3354 71.8143L71.1023 62.1691M88.3354 71.8143V82.9001M71.1023 62.1691L71.1023 72.8852L88.3354 82.9001M88.3354 82.9001L100.492 76.5044" stroke="#6F6F6F"/>
<line x1="83.1421" y1="48.7227" x2="83.1421" y2="40.6745" stroke="#CA0001"/>
<line x1="83.5065" y1="48.1027" x2="100.804" y2="57.5977" stroke="#CA0001"/>
</svg>

<svg width="156" height="102" viewBox="0 0 156 102" fill="none" xmlns="http://www.w3.org/2000/svg"><path d="M141.621 37.825l33.732 18.534-87.435 44.961L1.75 53.976l39.592-20.36m74.782-9.777l-9.403-5.193" stroke="#6F6F6F"/><path d="M20.436 45.212l16.305 8.96-17.621 9.06m86.158 28.596l-16.571-9.105M37.923 36.22l1.682.895m83.16 45.72l-16.571-9.104m34.057.112l-16.57-9.104m34.057.112l-16.57-9.105M36.353 72.702l17.622-9.062 17.233 9.469-17.621 9.062M158.25 46.96l-17.083 8.785m-70.082 36.04l17.555-9.027.067-.034m52.461-26.978l-17.487 8.993m0 0l-17.487 8.992m0 0l-17.487 8.993" stroke="#C8C8C8" stroke-dasharray="4 4"/><path d="M141.569 55.493l-40.741 20.909" stroke="#CA0001"/><path transform="matrix(.89036 -.45525 .8753 .48358 48.44 22.071)" stroke="#CA0001" d="M.883.014h45.09v19.122H.883z"/><path transform="matrix(.89036 -.45525 .8753 .48358 83.246 41.084)" stroke="#CA0001" d="M.883.014h45.264v19.073H.883z"/><path d="M48.791 29.833l-7.17 3.734m24.32 5.6l-7.48 3.898m0 0l-16.84-9.498m16.84 9.498l-4.476 9.958M41.62 33.567l-4.868 9.81m17.233 9.646l-17.233-9.645m17.233 9.645v10.716M36.752 43.378v10.716l17.233 9.645m0 0l12.157-6.396" stroke="#6F6F6F"/><path stroke="#CA0001" d="M106.438 28.82V10.451m34.686 45.192V29.368M65.642 57.612v-26.08m34.686 44.87V50.107m-51.65-20.604l17.295 9.174m-17.599-8.648V21.59m35.252 26.815L65.94 57.467"/><path d="M83.692 48.404l-7.721 3.954m24.521 5.5l-7.68 3.998m0 0L75.97 52.358m16.84 9.498l-4.476 9.958M75.971 52.358l-4.869 9.811m17.233 9.645L71.102 62.17m17.233 9.645V82.9M71.102 62.17v10.715L88.335 82.9m0 0l12.157-6.396" stroke="#6F6F6F"/><path stroke="#CA0001" d="M83.142 48.723v-8.048m.365 7.428l17.297 9.495"/></svg>
